X:16
T:Austin Barratts
T:Mulvihills
T:Dusty windowsill, The
T:Barracks, The
T:Dusting the Windows
T:Dusty Windowsills
T:Trip to the Highlands, The
R:Jig
O:Ireland
N:Anybody got any more names for this  ;-) (thanks to Lawrence Mallette for some of these)
M:6/8
C:Johnny Harling
K:ADor
A2B cBA | eAB cBA | G2G EGG | DGG EGG |\
A2B cBA | e2d efg | age dBG | BAG A3 :|*
|: a2a age | dBd g3 | gag gfe | dBA GAG |\
EGG DGG | EGG ABc | Bed BAG | BAG A3 :|*
|: ABA gAf | ABA gAf | GAG eGd | GAG eGd | \
ABA gAf | ABA efg | age dBG | BAG A3 :|**

